icons/HSB-Collections/64x64/apps/overcooked2.svg

<svg xmlns="http://www.w3.org/2000/svg" width="64" height="64" version="1.1">
 <path style="opacity:0.2" d="M 31.5,4.9999998 A 26.5,28 0 0 0 5,33 26.5,28 0 0 0 31.5,61 26.5,28 0 0 0 58,33 26.5,28 0 0 0 31.5,4.9999998 Z m 0,20.8003912 A 5.5789475,7.2000001 0 0 1 37.078947,33 5.5789475,7.2000001 0 0 1 31.5,40.199609 5.5789475,7.2000001 0 0 1 25.921053,33 5.5789475,7.2000001 0 0 1 31.5,25.800391 Z"/>
 <path style="fill:#ae2d20" d="M 31.5,4 A 26.5,28 0 0 0 5,32 26.5,28 0 0 0 31.5,60 26.5,28 0 0 0 58,32 26.5,28 0 0 0 31.5,4 Z m 0,20.800391 A 5.5789475,7.2000001 0 0 1 37.078947,32 5.5789475,7.2000001 0 0 1 31.5,39.199609 5.5789475,7.2000001 0 0 1 25.921053,32 5.5789475,7.2000001 0 0 1 31.5,24.800391 Z"/>
 <path style="opacity:0.2" d="M 31.5,8.9999998 A 22.499999,24 0 0 0 9,33 22.499999,24 0 0 0 31.5,57 22.499999,24 0 0 0 54,33 22.499999,24 0 0 0 31.5,8.9999998 Z M 31.5,21 A 9.5000003,12 0 0 1 41,33 9.5000003,12 0 0 1 31.5,45 9.5000003,12 0 0 1 22,33 9.5000003,12 0 0 1 31.5,21 Z"/>
 <path style="fill:#ffffff" d="M 31.5 8 A 22.499999 24 0 0 0 9 32 A 22.499999 24 0 0 0 31.5 56 A 22.499999 24 0 0 0 54 32 A 22.499999 24 0 0 0 31.5 8 z M 31.5 20 A 9.5000003 12 0 0 1 41 32 A 9.5000003 12 0 0 1 31.5 44 A 9.5000003 12 0 0 1 22 32 A 9.5000003 12 0 0 1 31.5 20 z"/>
 <path style="opacity:0.2" d="m 47.662523,60.21035 c -2.479532,-0.289922 -4.967074,-0.537168 -7.434092,-0.908596 -0.558142,-0.783925 0.08465,-1.908248 0.06459,-2.832057 0.60561,-3.047246 3.004731,-5.484404 5.701678,-7.162204 1.572439,-1.100707 3.437083,-2.067751 4.370253,-3.74489 0.255406,-1.134408 0.123619,-2.379086 -0.39951,-3.433783 -0.940745,-1.040546 -2.632262,-0.981456 -3.951916,-0.786048 -1.091271,0.03904 -2.175813,0.982833 -3.096536,0.961915 -0.06605,-1.42327 0.02808,-2.866889 0.279482,-4.270666 0.549247,-1.511753 2.46381,-1.870037 3.979484,-1.985129 2.982862,-0.243729 6.352142,0.390068 8.301981,2.664715 1.434783,1.617908 1.647339,3.806128 1.467964,5.816814 -0.06643,2.722579 -2.280808,4.858704 -4.570516,6.301076 -1.525786,0.976461 -3.274602,1.73593 -4.501,3.053909 -0.104026,0.995623 1.846578,0.642222 2.602203,0.914573 1.8381,0.238205 3.710563,0.349848 5.509731,0.778034 0.140448,1.582432 -0.08688,3.185386 -0.292676,4.758794 0.0248,1.15931 -1.610254,0.431864 -2.367537,0.498704 -1.889202,-0.19773 -3.775738,-0.416774 -5.66358,-0.625161 z"/>
 <path style="fill:#fd9a00" d="m 47.662523,59.21035 c -2.479532,-0.289922 -4.967074,-0.537168 -7.434092,-0.908596 -0.558142,-0.783925 0.08465,-1.908248 0.06459,-2.832057 0.60561,-3.047246 3.004731,-5.484404 5.701678,-7.162204 1.572439,-1.100707 3.437083,-2.067751 4.370253,-3.74489 0.255406,-1.134408 0.123619,-2.379086 -0.39951,-3.433783 -0.940745,-1.040546 -2.632262,-0.981456 -3.951916,-0.786048 -1.091271,0.03904 -2.175813,0.982833 -3.096536,0.961915 -0.06605,-1.42327 0.02808,-2.866889 0.279482,-4.270666 0.549247,-1.511753 2.46381,-1.870037 3.979484,-1.985129 2.982862,-0.243729 6.352142,0.390068 8.301981,2.664715 1.434783,1.617908 1.647339,3.806128 1.467964,5.816814 -0.06643,2.722579 -2.280808,4.858704 -4.570516,6.301076 -1.525786,0.976461 -3.274602,1.73593 -4.501,3.053909 -0.104026,0.995623 1.846578,0.642222 2.602203,0.914573 1.8381,0.238205 3.710563,0.349848 5.509731,0.778034 0.140448,1.582432 -0.08688,3.185386 -0.292676,4.758794 0.0248,1.15931 -1.610254,0.431864 -2.367537,0.498704 -1.889202,-0.19773 -3.775738,-0.416774 -5.66358,-0.625161 z"/>
 <path style="opacity:0.1;fill:#ffffff" d="M 31.5 4 A 26.5 28 0 0 0 5 32 A 26.5 28 0 0 0 5.0195312 32.414062 A 26.5 28 0 0 1 31.5 5 A 26.5 28 0 0 1 57.980469 32.585938 A 26.5 28 0 0 0 58 32 A 26.5 28 0 0 0 31.5 4 z M 37.060547 32.453125 A 5.5789475 7.2000001 0 0 1 31.5 39.199219 A 5.5789475 7.2000001 0 0 1 25.939453 32.546875 A 5.5789475 7.2000001 0 0 0 25.921875 33 A 5.5789475 7.2000001 0 0 0 31.5 40.199219 A 5.5789475 7.2000001 0 0 0 37.078125 33 A 5.5789475 7.2000001 0 0 0 37.060547 32.453125 z"/>
</svg>

<svg xmlns="http://www.w3.org/2000/svg" width="64" height="64" version="1.1">
 <path style="opacity:0.2" d="M 31.5,5 A 26.5,28 0 0 0 5,33 26.5,28 0 0 0 31.5,61 26.5,28 0 0 0 58,33 26.5,28 0 0 0 31.5,5 Z m 0,20.8004 A 5.5789,7.2 0 0 1 37.0789,33 5.5789,7.2 0 0 1 31.5,40.1996 5.5789,7.2 0 0 1 25.9211,33 5.5789,7.2 0 0 1 31.5,25.8004 Z"/>
 <path style="fill:#ae2d20" d="M 31.5,4 A 26.5,28 0 0 0 5,32 26.5,28 0 0 0 31.5,60 26.5,28 0 0 0 58,32 26.5,28 0 0 0 31.5,4 Z m 0,20.8004 A 5.5789,7.2 0 0 1 37.0789,32 5.5789,7.2 0 0 1 31.5,39.1996 5.5789,7.2 0 0 1 25.9211,32 5.5789,7.2 0 0 1 31.5,24.8004 Z"/>
 <path style="opacity:0.2" d="M 31.5,9 A 22.5,24 0 0 0 9,33 22.5,24 0 0 0 31.5,57 22.5,24 0 0 0 54,33 22.5,24 0 0 0 31.5,9 Z M 31.5,21 A 9.5,12 0 0 1 41,33 9.5,12 0 0 1 31.5,45 9.5,12 0 0 1 22,33 9.5,12 0 0 1 31.5,21 Z"/>
 <path style="fill:#ffffff" d="M 31.5 8 A 22.5 24 0 0 0 9 32 A 22.5 24 0 0 0 31.5 56 A 22.5 24 0 0 0 54 32 A 22.5 24 0 0 0 31.5 8 z M 31.5 20 A 9.5 12 0 0 1 41 32 A 9.5 12 0 0 1 31.5 44 A 9.5 12 0 0 1 22 32 A 9.5 12 0 0 1 31.5 20 z"/>
 <path style="opacity:0.2" d="M 40.228,59.302 C 39.67,58.518 40.313,57.394 40.293,56.47 40.899,53.422 43.298,50.985 45.995,49.307 47.567,48.207 49.432,47.24 50.365,45.563 50.62,44.428 50.489,43.184 49.965,42.129 49.025,41.088 47.333,41.147 46.014,41.343 44.922,41.382 43.838,42.326 42.917,42.305 42.851,40.881 42.945,39.438 43.196,38.034 43.746,36.522 45.66,36.164 47.176,36.049 50.159,35.805 53.528,36.439 55.478,38.714 56.913,40.332 57.125,42.52 56.946,44.53 56.879,47.253 54.665,49.389 52.375,50.831 50.85,51.808 49.101,52.567 47.874,53.885 47.77,54.881 49.721,54.528 50.477,54.8 52.315,55.038 54.187,55.15 55.986,55.578 56.127,57.16 55.899,58.763 55.694,60.337 55.718,61.496 54.083,60.769 53.326,60.836"/>
 <path style="fill:#fd9a00" d="M 40.228,58.302 C 39.67,57.518 40.313,56.394 40.293,55.47 40.899,52.422 43.298,49.985 45.995,48.307 47.567,47.207 49.432,46.24 50.365,44.563 50.62,43.428 50.489,42.184 49.965,41.129 49.025,40.088 47.333,40.147 46.014,40.343 44.922,40.382 43.838,41.326 42.917,41.305 42.851,39.881 42.945,38.438 43.196,37.034 43.746,35.522 45.66,35.164 47.176,35.049 50.159,34.805 53.528,35.439 55.478,37.714 56.913,39.332 57.125,41.52 56.946,43.53 56.879,46.253 54.665,48.389 52.375,49.831 50.85,50.808 49.101,51.567 47.874,52.885 47.77,53.881 49.721,53.528 50.477,53.8 52.315,54.038 54.187,54.15 55.986,54.578 56.127,56.16 55.899,57.763 55.694,59.337 55.718,60.496 54.083,59.769 53.326,59.836"/>
 <path style="opacity:0.1;fill:#ffffff" d="M 31.5 4 A 26.5 28 0 0 0 5 32 A 26.5 28 0 0 0 5.0195 32.4141 A 26.5 28 0 0 1 31.5 5 A 26.5 28 0 0 1 57.9805 32.5859 A 26.5 28 0 0 0 58 32 A 26.5 28 0 0 0 31.5 4 z M 37.0605 32.4531 A 5.5789 7.2 0 0 1 31.5 39.1992 A 5.5789 7.2 0 0 1 25.9395 32.5469 A 5.5789 7.2 0 0 0 25.9219 33 A 5.5789 7.2 0 0 0 31.5 40.1992 A 5.5789 7.2 0 0 0 37.0781 33 A 5.5789 7.2 0 0 0 37.0605 32.4531 z"/>
</svg>
